svg/u1faa8.svg

<svg viewBox="0 0 128 128" xmlns="http://www.w3.org/2000/svg">
  <g>
    <linearGradient id="SVGID_1_" gradientUnits="userSpaceOnUse" x1="87.6156" x2="41.5479" y1="21.0395" y2="138.0836">
      <stop offset="0" stop-color="#9E958E"/>
      <stop offset="0.4597" stop-color="#8E8884"/>
      <stop offset="1" stop-color="#757575"/>
    </linearGradient>
    <path d="M8.93,90.74c-0.53-1.25-1.04-2.5-1.54-3.75C3.62,77.48,8.35,68.9,12.57,60.5l6.12-12.16 c1.23-2.45,3.12-4.51,5.44-5.95l17.6-10.92l17.39-17.98c1.08-1.12,2.46-1.91,3.97-2.27l0,0l11.84-2.86 c5.73-1.37,8.19-1.15,10.04,1.48c6.41,9.1,10.7,16.59,16.41,25.66c3.11,4.94,10.29,16.29,10.74,17.04 c1.38,2.32,0.82,4.26,0.77,6.92c-0.12,6.13,0.96,12.29,3.2,18c0.67,1.7,1.44,3.38,1.79,5.17c0.32,1.61-0.11,11.84-0.44,15.3 c-0.27,2.81-6.91,13.3-9.29,14.57c-2.62,1.4-22.04,8.54-26.33,9.76s-22.89-3.03-32.55-4.51c-5.97-0.91-11.95-1.83-17.92-2.74 c-5.18-0.79-10.33-0.19-13.23-5.42C14.71,103.47,11.65,97.18,8.93,90.74z" fill="url(#SVGID_1_)"/>
    <linearGradient id="SVGID_2_" gradientUnits="userSpaceOnUse" x1="8.8588" x2="47.1713" y1="120.1374" y2="77.5362">
      <stop offset="0" stop-color="#37474F"/>
      <stop offset="0.6122" stop-color="#42565F" stop-opacity="0.1915"/>
      <stop offset="0.7573" stop-color="#455A64" stop-opacity="0"/>
    </linearGradient>
    <path d="M31.34,115c5.97,0.91,11.95,1.83,17.92,2.74c3.11,0.48,7.15,1.24,11.34,2.02 c-2.82-3.34-7.03-7.3-9.85-10.64c-0.61-0.72-1.23-1.47-1.45-2.39c-0.23-0.98,0.03-1.99,0.3-2.96c0.86-3.18,1.08-6.63,1.94-9.81 c-5.33,1.24-17.61,3.6-18.62,3.31c-1.12-0.32-2.03-1.13-2.9-1.92c-6.33-5.78-11.28-11.61-16.12-18.66 c-0.57-0.83-1.15-1.69-1.36-2.68c-0.2-0.93-0.05-1.89,0.1-2.82c0.36-2.32,1.16-8.75,1.8-14.42l-1.88,3.73 C8.35,68.9,3.62,77.48,7.4,86.99c0.5,1.26,1.01,2.51,1.54,3.75c2.71,6.44,5.78,12.73,9.17,18.83C21,114.81,26.16,114.21,31.34,115z " fill="url(#SVGID_2_)"/>
    <linearGradient id="SVGID_3_" gradientUnits="userSpaceOnUse" x1="99.5535" x2="74.7781" y1="66.7018" y2="11.7455">
      <stop offset="0" stop-color="#9E958E"/>
      <stop offset="0.4415" stop-color="#AEA298"/>
      <stop offset="1" stop-color="#C9B8A9"/>
    </linearGradient>
    <path d="M85.05,9.95c-1.23-1.45-3.63-1.17-6.15,1.13l-9.06,9.06c-0.56,0.56-0.86,1.33-0.81,2.12 L70,40.76c0.03,0.62,0.26,1.2,0.66,1.67c3.22,3.76,14.6,21.83,17.9,21.83c3.29,0,9.04-12.82,11.97-12.75 c0.5,0.01,3.11,0.17,5.66,0.95c2.38,0.72,3.31-2.55,2.82-4.87c-2.46-3.9-5.77-9.13-7.63-12.09C95.69,26.47,91.41,19,85.05,9.95z" fill="url(#SVGID_3_)"/>
    <linearGradient id="SVGID_4_" gradientUnits="userSpaceOnUse" x1="37.5017" x2="47.5017" y1="104.5447" y2="50.2947">
      <stop offset="3.806090e-04" stop-color="#4C5C64"/>
      <stop offset="1" stop-color="#455A64" stop-opacity="0"/>
    </linearGradient>
    <path d="M42.89,46.37c3.33-0.5,14.44-2.39,16.53-3.21c4.08-1.61,7.68-8.47,10.06-12.16 c0,0,0.82,12.03,0,16.73c-0.57,3.27-2.72,20.37-4.88,24.47L51.54,93.96c-6.4-6.4-12.79-12.79-19.19-19.19 c-1.63-1.63-2.67-2.49-3.26-4.8c-1.35-5.28-3.8-13.07-3.81-17.66S37.64,47.15,42.89,46.37z" fill="url(#SVGID_4_)"/>
    <linearGradient id="SVGID_5_" gradientUnits="userSpaceOnUse" x1="41.7319" x2="70.7821" y1="20.4163" y2="20.4163">
      <stop offset="3.806090e-04" stop-color="#4C5C64"/>
      <stop offset="1" stop-color="#455A64" stop-opacity="0"/>
    </linearGradient>
    <path d="M67.16,20.74c-1.28-1.53-1.64-3.7-1.2-5.64c0.37-1.62,3.73-4.75,4.82-5.74l-7.69,1.86 c-1.51,0.37-2.89,1.15-3.97,2.27L41.73,31.47C41.73,31.47,58.57,24.45,67.16,20.74z" fill="url(#SVGID_5_)"/>
    <linearGradient id="SVGID_6_" gradientUnits="userSpaceOnUse" x1="87.2609" x2="121.616" y1="76.6067" y2="90.7666">
      <stop offset="0" stop-color="#9E958E"/>
      <stop offset="0.25" stop-color="#AEA298"/>
      <stop offset="0.5662" stop-color="#C9B8A9"/>
    </linearGradient>
    <path d="M116.08,77.46c-1.68-4.28-2.71-8.81-3.06-13.39c-5.74,3.93-8.95,9.03-18.19,10.28 c-2.45,0.33-6.24,0.79-8.63,1.42c-2.96,0.78-5.7,2.97-10.14,3.38c-3.16,0.3-11.13,0.07-9.93,1.85c1.2,1.78,8.35,5.37,10.13,6.82 c2.53,2.03,4.73,4.42,6.84,6.88c1.1,1.29,2.75,4.42,4.67,5.27c0.49,0.22,1.01,0.28,1.53,0.12c0.91-0.27,1.64-0.93,2.35-1.56 c6.87-6.09,14.64-11.17,22.97-15.02c0.89-0.41,1.85-0.87,2.29-1.75c0.19-0.39,0.27-0.92,0.28-1.49 C116.84,79.33,116.45,78.4,116.08,77.46z" fill="url(#SVGID_6_)"/>
    <linearGradient id="SVGID_7_" gradientUnits="userSpaceOnUse" x1="104.646" x2="97.6055" y1="123.3574" y2="95.5867">
      <stop offset="0" stop-color="#37474F"/>
      <stop offset="0.8085" stop-color="#42565F" stop-opacity="0.1915"/>
      <stop offset="1" stop-color="#455A64" stop-opacity="0"/>
    </linearGradient>
    <path d="M117.87,82.63c-0.13-0.65-0.32-1.29-0.54-1.92c-0.17,0.59-0.54,1.24-1.34,1.85 c-2.3,1.76-11.17,4.47-20.93,13.02c-6.37,5.58-6.38,6.33-7.75,12.48c-2.24,10.07-5.8,13.73-6.48,14.35 c0.37-0.04,0.7-0.09,0.97-0.17c4.3-1.21,23.71-8.36,26.33-9.76c2.38-1.27,9.02-11.76,9.29-14.57 C117.76,94.47,118.19,84.24,117.87,82.63z" fill="url(#SVGID_7_)"/>
  </g>
</svg>

<svg viewBox="0 0 128 128" xmlns="http://www.w3.org/2000/svg">
  <defs>
    <linearGradient id="SVGID_1_" gradientUnits="userSpaceOnUse" x1="87.6156" x2="41.5479" y1="21.0395" y2="138.0836">
      <stop offset="0" stop-color="#9E958E"/>
      <stop offset="0.4597" stop-color="#8E8884"/>
      <stop offset="1" stop-color="#757575"/>
    </linearGradient>
    <linearGradient id="SVGID_2_" gradientUnits="userSpaceOnUse" x1="8.8588" x2="47.1713" y1="120.1374" y2="77.5362">
      <stop offset="0" stop-color="#37474F"/>
      <stop offset="0.6122" stop-color="#42565F" stop-opacity="0.1915"/>
      <stop offset="0.7573" stop-color="#455A64" stop-opacity="0"/>
    </linearGradient>
    <linearGradient id="SVGID_3_" gradientUnits="userSpaceOnUse" x1="99.5535" x2="74.7781" y1="66.7018" y2="11.7455">
      <stop offset="0" stop-color="#9E958E"/>
      <stop offset="0.4415" stop-color="#AEA298"/>
      <stop offset="1" stop-color="#C9B8A9"/>
    </linearGradient>
    <linearGradient id="SVGID_4_" gradientUnits="userSpaceOnUse" x1="37.5017" x2="47.5017" y1="104.5447" y2="50.2947">
      <stop offset="3.806090e-04" stop-color="#4C5C64"/>
      <stop offset="1" stop-color="#455A64" stop-opacity="0"/>
    </linearGradient>
    <linearGradient id="SVGID_5_" gradientUnits="userSpaceOnUse" x1="41.7319" x2="70.7821" y1="20.4163" y2="20.4163">
      <stop offset="3.806090e-04" stop-color="#4C5C64"/>
      <stop offset="1" stop-color="#455A64" stop-opacity="0"/>
    </linearGradient>
    <linearGradient id="SVGID_6_" gradientUnits="userSpaceOnUse" x1="87.2609" x2="121.616" y1="76.6067" y2="90.7666">
      <stop offset="0" stop-color="#9E958E"/>
      <stop offset="0.25" stop-color="#AEA298"/>
      <stop offset="0.5662" stop-color="#C9B8A9"/>
    </linearGradient>
    <linearGradient id="SVGID_7_" gradientUnits="userSpaceOnUse" x1="104.646" x2="97.6055" y1="123.3574" y2="95.5867">
      <stop offset="0" stop-color="#37474F"/>
      <stop offset="0.8085" stop-color="#42565F" stop-opacity="0.1915"/>
      <stop offset="1" stop-color="#455A64" stop-opacity="0"/>
    </linearGradient>
  </defs>
  <path d="M8.93,90.74 C8.4,89.49 7.89,88.24 7.39,86.99 C3.62,77.48 8.35,68.9 12.57,60.5 L18.69,48.34 C19.92,45.89 21.81,43.83 24.13,42.39 L41.73,31.47 L59.12,13.49 C60.2,12.37 61.58,11.58 63.09,11.22 L63.09,11.22 L74.93,8.36 C80.66,6.99 83.12,7.21 84.97,9.84 C91.38,18.94 95.67,26.43 101.38,35.5 C104.49,40.44 111.67,51.79 112.12,52.54 C113.5,54.86 112.94,56.8 112.89,59.46 C112.77,65.59 113.85,71.75 116.09,77.46 C116.76,79.16 117.53,80.84 117.88,82.63 C118.2,84.24 117.77,94.47 117.44,97.93 C117.17,100.74 110.53,111.23 108.15,112.5 C105.53,113.9 86.11,121.04 81.82,122.26 C77.53,123.48 58.93,119.23 49.27,117.75 C43.3,116.84 37.32,115.92 31.35,115.01 C26.17,114.22 21.02,114.82 18.12,109.59 C14.71,103.47 11.65,97.18 8.93,90.74 Z" fill="url(#SVGID_1_)"/>
  <path d="M31.34,115 C37.31,115.91 43.29,116.83 49.26,117.74 C52.37,118.22 56.41,118.98 60.6,119.76 C57.78,116.42 53.57,112.46 50.75,109.12 C50.14,108.4 49.52,107.65 49.3,106.73 C49.07,105.75 49.33,104.74 49.6,103.77 C50.46,100.59 50.68,97.14 51.54,93.96 C46.21,95.2 33.93,97.56 32.92,97.27 C31.8,96.95 30.89,96.14 30.02,95.35 C23.69,89.57 18.74,83.74 13.9,76.69 C13.33,75.86 12.75,75 12.54,74.01 C12.34,73.08 12.49,72.12 12.64,71.19 C13,68.87 13.8,62.44 14.44,56.77 L12.56,60.5 C8.35,68.9 3.62,77.48 7.4,86.99 C7.9,88.25 8.41,89.5 8.94,90.74 C11.65,97.18 14.72,103.47 18.11,109.57 C21,114.81 26.16,114.21 31.34,115 Z" fill="url(#SVGID_2_)"/>
  <path d="M85.05,9.95 C83.82,8.5 81.42,8.78 78.9,11.08 L69.84,20.14 C69.28,20.7 68.98,21.47 69.03,22.26 L70,40.76 C70.03,41.38 70.26,41.96 70.66,42.43 C73.88,46.19 85.26,64.26 88.56,64.26 C91.85,64.26 97.6,51.44 100.53,51.51 C101.03,51.52 103.64,51.68 106.19,52.46 C108.57,53.18 109.5,49.91 109.01,47.59 C106.55,43.69 103.24,38.46 101.38,35.5 C95.69,26.47 91.41,19 85.05,9.95 Z" fill="url(#SVGID_3_)"/>
  <path d="M42.89,46.37 C46.22,45.87 57.33,43.98 59.42,43.16 C63.5,41.55 67.1,34.69 69.48,31 C69.48,31 70.3,43.03 69.48,47.73 C68.91,51 66.76,68.1 64.6,72.2 L51.54,93.96 C45.14,87.56 38.75,81.17 32.35,74.77 C30.72,73.14 29.68,72.28 29.09,69.97 C27.74,64.69 25.29,56.9 25.28,52.31 C25.27,47.72 37.64,47.15 42.89,46.37 Z" fill="url(#SVGID_4_)"/>
  <path d="M67.16,20.74 C65.88,19.21 65.52,17.04 65.96,15.1 C66.33,13.48 69.69,10.35 70.78,9.36 L63.09,11.22 C61.58,11.59 60.2,12.37 59.12,13.49 L41.73,31.47 C41.73,31.47 58.57,24.45 67.16,20.74 Z" fill="url(#SVGID_5_)"/>
  <path d="M116.08,77.46 C114.4,73.18 113.37,68.65 113.02,64.07 C107.28,68 104.07,73.1 94.83,74.35 C92.38,74.68 88.59,75.14 86.2,75.77 C83.24,76.55 80.5,78.74 76.06,79.15 C72.9,79.45 64.93,79.22 66.13,81 C67.33,82.78 74.48,86.37 76.26,87.82 C78.79,89.85 80.99,92.24 83.1,94.7 C84.2,95.99 85.85,99.12 87.77,99.97 C88.26,100.19 88.78,100.25 89.3,100.09 C90.21,99.82 90.94,99.16 91.65,98.53 C98.52,92.44 106.29,87.36 114.62,83.51 C115.51,83.1 116.47,82.64 116.91,81.76 C117.1,81.37 117.18,80.84 117.19,80.27 C116.84,79.33 116.45,78.4 116.08,77.46 Z" fill="url(#SVGID_6_)"/>
  <path d="M117.87,82.63 C117.74,81.98 117.55,81.34 117.33,80.71 C117.16,81.3 116.79,81.95 115.99,82.56 C113.69,84.32 104.82,87.03 95.06,95.58 C88.69,101.16 88.68,101.91 87.31,108.06 C85.07,118.13 81.51,121.79 80.83,122.41 C81.2,122.37 81.53,122.32 81.8,122.24 C86.1,121.03 105.51,113.88 108.13,112.48 C110.51,111.21 117.15,100.72 117.42,97.91 C117.76,94.47 118.19,84.24 117.87,82.63 Z" fill="url(#SVGID_7_)"/>
</svg>
